picto/customs-it-framed.svg

<svg class="color-immutable" width="30" height="30" viewBox="0 0 30 30" fill="none" xmlns="http://www.w3.org/2000/svg"><path d="M29.9999 0H0V29.9999H29.9999V0Z" fill="#2D327D"/><path d="M25.4999 2.99999C26.3249 2.99999 26.9999 3.67499 26.9999 4.49999V25.4999C26.9999 26.3249 26.3249 26.9999 25.4999 26.9999H4.49999C3.67499 26.9999 2.99999 26.3249 2.99999 25.4999V4.49999C2.99999 3.67499 3.67499 2.99999 4.49999 2.99999H25.4999ZM25.4999 2.62499H4.49999C3.46612 2.62499 2.62499 3.46612 2.62499 4.49999V25.4999C2.62499 26.5338 3.46612 27.3749 4.49999 27.3749H25.4999C26.5338 27.3749 27.3749 26.5338 27.3749 25.4999V4.49999C27.3749 3.46612 26.5338 2.62499 25.4999 2.62499Z" fill="white"/><path d="M21.7494 10.5001H17.738V9.59946C17.738 8.85478 17.1324 8.24938 16.3873 8.24938H13.6125C12.8673 8.24938 12.2626 8.85478 12.2626 9.59946V10.5001H8.2503C7.00822 10.5001 5.99925 11.5075 5.99925 12.7497V21.7494C5.99925 22.9917 7.00822 23.9991 8.2503 23.9991H21.7494C22.9924 23.9991 24.0004 22.9917 24.0004 21.7494V12.7498C24.0004 11.5075 22.9925 10.5001 21.7494 10.5001ZM16.6882 10.5001H13.3123V9.29953H16.6882V10.5001Z" fill="white"/><path d="M12.7718 11.9247C9.85289 11.9247 7.48484 14.2167 7.48484 17.1358C7.48484 20.0549 9.85289 22.4999 12.7718 22.4999C15.6907 22.4999 18.0595 20.0549 18.0595 17.1358C18.0596 14.2167 15.6907 11.9247 12.7718 11.9247ZM12.7718 21.0948C10.6815 21.0948 8.98424 19.3976 8.98424 17.3067C8.98424 15.2167 10.6816 13.5194 12.7718 13.5194C14.862 13.5194 16.5593 15.2166 16.5593 17.3067C16.5593 19.3976 14.862 21.0948 12.7718 21.0948Z" fill="#EB0000"/><path d="M10.725 17.8499H14.8498C15.1609 17.8499 15.4127 17.5982 15.4127 17.2872C15.4127 16.977 15.1609 16.7247 14.8498 16.7247H10.725C10.4139 16.7247 10.1631 16.9771 10.1631 17.2872C10.1631 17.5982 10.4139 17.8499 10.725 17.8499Z" fill="black"/><path d="M10.1633 15.3069H10.586C10.6647 15.3069 10.732 15.316 10.7881 15.3341C10.8441 15.3522 10.8936 15.3808 10.9365 15.42C11.041 15.5153 11.0931 15.6477 11.0931 15.8169C11.0931 15.9963 11.0437 16.1347 10.945 16.2324C10.9016 16.2759 10.8528 16.3067 10.7984 16.3251C10.744 16.3434 10.675 16.3526 10.591 16.3526H10.1633V15.3069ZM10.3915 15.5001V16.1595H10.5674C10.6213 16.1595 10.6642 16.1541 10.6961 16.1433C10.7281 16.1326 10.756 16.1144 10.7798 16.0887C10.8352 16.0286 10.8628 15.9406 10.8628 15.8247C10.8628 15.7179 10.8371 15.6372 10.7859 15.5823C10.7347 15.5275 10.659 15.5001 10.5589 15.5001H10.3915Z" fill="black"/><path d="M11.6044 15.5501C11.7179 15.5501 11.8106 15.5878 11.8826 15.6631C11.9536 15.7375 11.9891 15.8367 11.9891 15.9607C11.9891 16.089 11.9513 16.1912 11.8754 16.2675C11.8044 16.3386 11.7119 16.3741 11.5979 16.3741C11.4764 16.3741 11.3795 16.3345 11.3075 16.2554C11.2388 16.18 11.2046 16.0823 11.2046 15.9621C11.2046 15.8439 11.2379 15.7479 11.3047 15.6739C11.3786 15.5914 11.4785 15.5501 11.6044 15.5501ZM11.5937 15.7118C11.5388 15.7118 11.4952 15.734 11.4628 15.7783C11.4299 15.8232 11.4134 15.8844 11.4134 15.9621C11.4134 16.0427 11.4296 16.1044 11.4621 16.1474C11.4955 16.1908 11.541 16.2125 11.5987 16.2125C11.6525 16.2125 11.6952 16.1927 11.7267 16.1531C11.7625 16.1092 11.7803 16.0455 11.7803 15.9621C11.7803 15.8839 11.7647 15.8231 11.7332 15.7797C11.7002 15.7344 11.6537 15.7118 11.5937 15.7118Z" fill="black"/><path d="M12.853 15.5716V16.2597C12.853 16.3207 12.8492 16.3695 12.8416 16.4059C12.834 16.4424 12.8208 16.4757 12.8023 16.5057C12.7423 16.601 12.6345 16.6487 12.479 16.6487C12.2626 16.6487 12.1441 16.5669 12.1236 16.4034H12.3325C12.3467 16.4687 12.397 16.5014 12.4834 16.5014C12.5491 16.5014 12.5952 16.4828 12.6214 16.4456C12.6419 16.416 12.6522 16.3684 12.6522 16.3026L12.6529 16.206C12.5995 16.2881 12.5223 16.3291 12.4212 16.3291C12.3235 16.3291 12.2455 16.2948 12.1873 16.2261C12.1282 16.1565 12.0986 16.0626 12.0986 15.9443C12.0986 15.8261 12.1282 15.7311 12.1873 15.6596C12.2488 15.5857 12.3296 15.5487 12.4298 15.5487C12.4818 15.5487 12.5251 15.5585 12.5599 15.5781C12.5947 15.5976 12.6267 15.6303 12.6558 15.6761V15.5716H12.853ZM12.4762 15.7189C12.418 15.7189 12.3739 15.7432 12.3439 15.7919C12.3196 15.831 12.3074 15.8806 12.3074 15.9406C12.3074 16.017 12.325 16.0749 12.3604 16.1144C12.3909 16.1497 12.4307 16.1673 12.4798 16.1673C12.5418 16.1673 12.5883 16.1413 12.6193 16.0893C12.6431 16.0493 12.655 15.9987 12.655 15.9378C12.655 15.8643 12.6367 15.8076 12.6 15.7675C12.5698 15.7351 12.5286 15.7189 12.4762 15.7189Z" fill="black"/><path d="M13.7258 16.3527H13.5141C13.505 16.3221 13.5005 16.2961 13.5005 16.2747C13.4357 16.341 13.352 16.3741 13.2495 16.3741C13.1694 16.3741 13.1069 16.3555 13.0621 16.3183C13.0106 16.2754 12.9848 16.2156 12.9848 16.1388C12.9848 16.041 13.0289 15.9733 13.1171 15.9357C13.1529 15.9204 13.2187 15.9063 13.3145 15.8935C13.397 15.8826 13.4484 15.8719 13.4687 15.8616C13.4889 15.8514 13.499 15.8308 13.499 15.7998C13.499 15.7317 13.4537 15.6975 13.3631 15.6975C13.315 15.6975 13.2798 15.7061 13.2577 15.7233C13.2355 15.7405 13.2209 15.7703 13.2137 15.8127H13.0177C13.0239 15.7259 13.0565 15.6605 13.1157 15.6164C13.1748 15.5723 13.259 15.5502 13.3682 15.5502C13.4888 15.5502 13.5779 15.5748 13.6356 15.6238C13.6623 15.6468 13.6801 15.6713 13.6889 15.6975C13.6976 15.7236 13.7021 15.7651 13.7021 15.8219C13.7021 15.8338 13.7014 15.8862 13.7 15.9792C13.699 16.0732 13.6985 16.1271 13.6985 16.1409C13.6985 16.1976 13.7002 16.2393 13.7035 16.2657C13.7069 16.2922 13.7144 16.3212 13.7258 16.3527ZM13.4977 15.9757C13.471 15.9924 13.4223 16.0055 13.3518 16.015C13.3022 16.0227 13.2665 16.0323 13.2445 16.0443C13.2135 16.0611 13.198 16.0894 13.198 16.1295C13.198 16.1619 13.2083 16.1872 13.2287 16.2053C13.2492 16.2234 13.2778 16.2324 13.3145 16.2324C13.3756 16.2324 13.4249 16.211 13.4626 16.1681C13.4759 16.1534 13.4851 16.138 13.4901 16.122C13.4951 16.1061 13.4976 16.0849 13.4976 16.0587V15.9757H13.4977Z" fill="black"/><path d="M14.0577 15.5738V15.6832C14.082 15.6498 14.1047 15.6253 14.1257 15.6096C14.1772 15.5695 14.2391 15.5495 14.3116 15.5495C14.3755 15.5495 14.4296 15.5657 14.474 15.5981C14.5092 15.6238 14.5339 15.6564 14.548 15.6957C14.5621 15.7351 14.5691 15.7905 14.5691 15.862V16.3527H14.3624V15.9057C14.3624 15.8556 14.3581 15.8189 14.3495 15.7955C14.3414 15.775 14.3276 15.7588 14.3081 15.7469C14.2856 15.734 14.2601 15.7275 14.2315 15.7275C14.2001 15.7275 14.1714 15.7352 14.1457 15.7505C14.12 15.7657 14.1008 15.7864 14.0885 15.8127C14.0747 15.8423 14.0678 15.8883 14.0678 15.9507V16.3527H13.8603V15.5738H14.0577Z" fill="black"/><path d="M15.4351 16.3527H15.2233C15.2143 16.3221 15.2098 16.2961 15.2098 16.2747C15.1449 16.341 15.0613 16.3741 14.9587 16.3741C14.8786 16.3741 14.8162 16.3555 14.7713 16.3183C14.7198 16.2754 14.6941 16.2156 14.6941 16.1388C14.6941 16.041 14.7382 15.9733 14.8264 15.9357C14.8621 15.9204 14.9279 15.9063 15.0238 15.8935C15.1063 15.8826 15.1576 15.8719 15.1779 15.8616C15.1982 15.8514 15.2083 15.8308 15.2083 15.7998C15.2083 15.7317 15.163 15.6975 15.0724 15.6975C15.0242 15.6975 14.989 15.7061 14.9669 15.7233C14.9447 15.7405 14.9301 15.7703 14.9229 15.8127H14.7269C14.7331 15.7259 14.7658 15.6605 14.8249 15.6164C14.884 15.5723 14.9682 15.5502 15.0774 15.5502C15.198 15.5502 15.2872 15.5748 15.3448 15.6238C15.3715 15.6468 15.3893 15.6713 15.3982 15.6975C15.4069 15.7237 15.4114 15.7651 15.4114 15.8219C15.4114 15.8338 15.4107 15.8862 15.4093 15.9792C15.4083 16.0732 15.4078 16.1271 15.4078 16.1409C15.4078 16.1976 15.4094 16.2393 15.4128 16.2657C15.4162 16.2922 15.4235 16.3212 15.4351 16.3527ZM15.2069 15.9757C15.1802 15.9924 15.1315 16.0055 15.061 16.015C15.0114 16.0227 14.9757 16.0323 14.9537 16.0443C14.9227 16.0611 14.9072 16.0894 14.9072 16.1295C14.9072 16.1619 14.9175 16.1872 14.938 16.2053C14.9584 16.2234 14.987 16.2324 15.0238 16.2324C15.0847 16.2324 15.1342 16.211 15.1718 16.1681C15.1852 16.1534 15.1944 16.138 15.1993 16.122C15.2043 16.1061 15.2069 16.0849 15.2069 16.0587V15.9757Z" fill="black"/></svg>

<svg class="color-immutable" width="30" height="30" viewBox="0 0 30 30" fill="none" xmlns="http://www.w3.org/2000/svg"><path d="M30 0H0v30h30V0Z" fill="#2D327D"/><path d="M25.5 3c.825 0 1.5.675 1.5 1.5v21c0 .825-.675 1.5-1.5 1.5h-21c-.825 0-1.5-.675-1.5-1.5v-21C3 3.675 3.675 3 4.5 3h21Zm0-.375h-21A1.877 1.877 0 0 0 2.625 4.5v21c0 1.034.841 1.875 1.875 1.875h21a1.877 1.877 0 0 0 1.875-1.875v-21A1.877 1.877 0 0 0 25.5 2.625Z" fill="#fff"/><path d="M21.75 10.5h-4.012v-.9c0-.745-.606-1.35-1.35-1.35h-2.776a1.35 1.35 0 0 0-1.35 1.35v.9H8.25A2.251 2.251 0 0 0 6 12.75v9A2.251 2.251 0 0 0 8.25 24h13.5A2.25 2.25 0 0 0 24 21.75v-9a2.25 2.25 0 0 0-2.25-2.25Zm-5.062 0h-3.376V9.3h3.376v1.2Z" fill="#fff"/><path d="M12.772 11.925c-2.92 0-5.287 2.292-5.287 5.21 0 2.92 2.368 5.365 5.287 5.365s5.287-2.445 5.287-5.364c0-2.92-2.368-5.211-5.287-5.211Zm0 9.17a3.79 3.79 0 0 1-3.788-3.788 3.79 3.79 0 0 1 3.788-3.788 3.79 3.79 0 0 1 3.787 3.788 3.79 3.79 0 0 1-3.787 3.788Z" fill="#EB0000"/><path d="M10.725 17.85h4.125a.563.563 0 1 0 0-1.125h-4.125a.562.562 0 0 0 0 1.125ZM10.163 15.307h.423c.079 0 .146.009.202.027a.4.4 0 0 1 .149.086.51.51 0 0 1 .156.397c0 .18-.05.318-.148.415a.375.375 0 0 1-.147.093.66.66 0 0 1-.207.028h-.428v-1.046Zm.229.193v.66h.175a.413.413 0 0 0 .13-.017.198.198 0 0 0 .083-.054c.055-.06.083-.148.083-.264 0-.107-.026-.188-.077-.243-.051-.055-.127-.082-.227-.082h-.167ZM11.604 15.55c.114 0 .207.038.279.113a.413.413 0 0 1 .106.298c0 .128-.038.23-.114.306a.375.375 0 0 1-.277.107.374.374 0 0 1-.29-.119.418.418 0 0 1-.103-.293c0-.118.033-.214.1-.288a.382.382 0 0 1 .3-.124Zm-.01.162a.154.154 0 0 0-.131.066.305.305 0 0 0-.05.184c0 .08.017.142.05.185a.163.163 0 0 0 .136.066c.053 0 .096-.02.128-.06a.296.296 0 0 0 .053-.19.306.306 0 0 0-.047-.183.162.162 0 0 0-.14-.068ZM12.853 15.572v.688c0 .06-.004.11-.011.146a.308.308 0 0 1-.04.1c-.06.095-.168.143-.323.143-.216 0-.335-.082-.355-.246h.208c.015.066.065.098.151.098.066 0 .112-.018.138-.055.02-.03.031-.078.031-.143v-.097a.26.26 0 0 1-.23.123.29.29 0 0 1-.235-.103.421.421 0 0 1-.088-.282c0-.118.03-.213.088-.284a.3.3 0 0 1 .243-.111c.052 0 .095.01.13.03.035.019.067.051.096.097v-.104h.197Zm-.377.147a.146.146 0 0 0-.132.073.277.277 0 0 0-.037.149c0 .076.018.134.053.173a.15.15 0 0 0 .12.053.152.152 0 0 0 .14-.078.293.293 0 0 0 .035-.151.243.243 0 0 0-.055-.17.16.16 0 0 0-.124-.05ZM13.726 16.353h-.212a.282.282 0 0 1-.013-.078.336.336 0 0 1-.252.1.285.285 0 0 1-.187-.057.22.22 0 0 1-.077-.18c0-.097.044-.165.132-.202a.867.867 0 0 1 .197-.043.633.633 0 0 0 .155-.031c.02-.01.03-.031.03-.062 0-.068-.045-.103-.136-.103-.048 0-.083.01-.105.026-.022.018-.037.047-.044.09h-.196a.253.253 0 0 1 .098-.197.416.416 0 0 1 .252-.066c.12 0 .21.025.268.074a.17.17 0 0 1 .053.073.427.427 0 0 1 .013.125 22.113 22.113 0 0 1-.004.319c0 .057.002.098.005.125.004.026.011.055.023.087Zm-.228-.377a.402.402 0 0 1-.146.039.353.353 0 0 0-.107.03c-.031.016-.047.044-.047.084 0 .033.01.058.03.076.021.018.05.027.087.027.06 0 .11-.021.148-.064a.124.124 0 0 0 .027-.046.218.218 0 0 0 .008-.063v-.083ZM14.058 15.574v.11a.293.293 0 0 1 .254-.134c.064 0 .118.016.162.048.035.026.06.058.074.098.014.04.021.095.021.166v.49h-.207v-.446a.344.344 0 0 0-.012-.11.098.098 0 0 0-.042-.05.165.165 0 0 0-.162.004.14.14 0 0 0-.057.063.345.345 0 0 0-.021.138v.402h-.208v-.78h.198ZM15.435 16.353h-.212a.285.285 0 0 1-.013-.078.336.336 0 0 1-.251.1.285.285 0 0 1-.188-.057.22.22 0 0 1-.077-.18c0-.097.044-.165.132-.202a.864.864 0 0 1 .198-.043.631.631 0 0 0 .154-.031c.02-.01.03-.031.03-.062 0-.068-.045-.103-.136-.103-.048 0-.083.01-.105.026-.022.018-.037.047-.044.09h-.196a.254.254 0 0 1 .098-.197.416.416 0 0 1 .252-.066c.121 0 .21.025.268.074a.172.172 0 0 1 .053.073.428.428 0 0 1 .013.125 22.113 22.113 0 0 1-.003.319c0 .057.001.098.005.125.003.026.01.055.022.087Zm-.228-.377a.402.402 0 0 1-.146.039.353.353 0 0 0-.107.03c-.031.016-.047.044-.047.084 0 .033.01.058.031.076.02.018.049.027.086.027.06 0 .11-.021.148-.064a.122.122 0 0 0 .027-.046.217.217 0 0 0 .008-.063v-.083Z" fill="#000"/></svg>
